static/logos/paypal-wordmark-color.svg

<svg width="100" height="25" viewBox="0 0 100 25" fill="none" xmlns="http://www.w3.org/2000/svg">
<g clip-path="url(#clip0_1_1721)">
<path fill-rule="evenodd" clip-rule="evenodd" d="M77.409 10.7448C77.1094 12.7125 75.6065 12.7125 74.1533 12.7125H73.326L73.9061 9.0387C73.9411 8.81675 74.1325 8.65313 74.3577 8.65313H74.7366C75.726 8.65313 76.6606 8.65313 77.1427 9.21683C77.4309 9.55411 77.5179 10.054 77.409 10.7448ZM76.7764 5.61126H71.2947C70.9199 5.61126 70.6008 5.88398 70.5423 6.25427L68.326 20.3102C68.2821 20.5874 68.4964 20.8382 68.7773 20.8382H71.5899C71.8521 20.8382 72.0756 20.6472 72.1163 20.388L72.7447 16.4033C72.8033 16.0331 73.1224 15.7603 73.4972 15.7603H75.2317C78.8423 15.7603 80.9264 14.0128 81.4712 10.5497C81.7163 9.035 81.4809 7.84484 80.7716 7.01163C79.9919 6.09561 78.6106 5.61126 76.7764 5.61126Z" fill="#2790C3"/>
<path fill-rule="evenodd" clip-rule="evenodd" d="M38.3077 10.7448C38.0081 12.7125 36.5053 12.7125 35.052 12.7125H34.2249L34.8049 9.0387C34.8401 8.81675 35.0315 8.65313 35.2562 8.65313H35.6353C36.6248 8.65313 37.5595 8.65313 38.0411 9.21683C38.3296 9.55411 38.4168 10.054 38.3077 10.7448ZM37.6753 5.61126H32.1933C31.8186 5.61126 31.4996 5.88398 31.4412 6.25427L29.2244 20.3102C29.1808 20.5874 29.3951 20.8382 29.6757 20.8382H32.2931C32.6679 20.8382 32.9872 20.5654 33.0455 20.1954L33.6437 16.4033C33.7019 16.0331 34.0212 15.7603 34.3959 15.7603H36.1305C39.741 15.7603 41.8249 14.0128 42.3696 10.5497C42.6148 9.035 42.3798 7.84484 41.6705 7.01163C40.8904 6.09561 39.509 5.61126 37.6753 5.61126Z" fill="#27346A"/>
<path fill-rule="evenodd" clip-rule="evenodd" d="M50.4038 15.7908C50.1502 17.2907 48.9595 18.2976 47.4408 18.2976C46.6798 18.2976 46.0701 18.0527 45.6786 17.5891C45.2904 17.1293 45.1441 16.4745 45.2672 15.7452C45.5034 14.2589 46.7132 13.2195 48.2087 13.2195C48.9542 13.2195 49.5591 13.4669 49.9587 13.9347C50.3611 14.406 50.5189 15.0653 50.4038 15.7908ZM54.062 10.682H51.4372C51.212 10.682 51.0209 10.8453 50.9855 11.0677L50.8701 11.8017L50.6868 11.5356C50.1185 10.7105 48.8514 10.4348 47.5863 10.4348C44.6863 10.4348 42.2091 12.6324 41.727 15.7147C41.4762 17.2523 41.8323 18.7216 42.7042 19.7472C43.505 20.6896 44.6481 21.0818 46.0099 21.0818C48.3477 21.0818 49.6441 19.5802 49.6441 19.5802L49.5266 20.3097C49.4831 20.5871 49.6973 20.8381 49.9782 20.8381H52.342C52.7168 20.8381 53.0359 20.5656 53.0941 20.1954L54.5132 11.2099C54.5571 10.9325 54.3428 10.682 54.062 10.682Z" fill="#27346A"/>
<path fill-rule="evenodd" clip-rule="evenodd" d="M89.505 15.7908C89.2517 17.2907 88.0611 18.2976 86.5424 18.2976C85.781 18.2976 85.1717 18.0527 84.7798 17.5891C84.3916 17.1293 84.2456 16.4745 84.3688 15.7452C84.605 14.2589 85.8147 13.2195 87.3103 13.2195C88.0554 13.2195 88.6607 13.4669 89.0603 13.9347C89.4623 14.406 89.62 15.0653 89.505 15.7908ZM93.1631 10.682H90.5383C90.3135 10.682 90.1221 10.8453 90.0871 11.0677L89.9717 11.8017L89.7883 11.5356C89.2196 10.7105 87.953 10.4348 86.6875 10.4348C83.7879 10.4348 81.3107 12.6324 80.8286 15.7147C80.5778 17.2523 80.9338 18.7216 81.8054 19.7472C82.6066 20.6896 83.7497 21.0818 85.1115 21.0818C87.4489 21.0818 88.7452 19.5802 88.7452 19.5802L88.6282 20.3097C88.5843 20.5871 88.7985 20.8381 89.0798 20.8381H91.4432C91.818 20.8381 92.1371 20.5656 92.1956 20.1954L93.6143 11.2099C93.6582 10.9325 93.444 10.682 93.1631 10.682Z" fill="#2790C3"/>
<mask id="mask0_1_1721" style="mask-type:alpha" maskUnits="userSpaceOnUse" x="0" y="0" width="100" height="25">
<path d="M0.015625 24.3902H99.694V0.20226H0.015625V24.3902Z" fill="white"/>
</mask>
<g mask="url(#mask0_1_1721)">
<path fill-rule="evenodd" clip-rule="evenodd" d="M68.0429 10.682H65.4047C65.1527 10.682 64.9165 10.8071 64.7746 11.0158L61.1356 16.376L59.5929 11.2252C59.4965 10.9029 59.1998 10.682 58.8636 10.682H56.2701C55.9567 10.682 55.7364 10.9899 55.8372 11.2863L58.7425 19.8135L56.01 23.6691C55.7953 23.9717 56.012 24.3902 56.3827 24.3902H59.0185C59.2685 24.3902 59.5022 24.2678 59.6445 24.0623L68.4189 11.3994C68.6287 11.0963 68.412 10.682 68.0429 10.682Z" fill="#27346A"/>
<path fill-rule="evenodd" clip-rule="evenodd" d="M96.2556 5.99732L94.0056 20.3102C93.9621 20.5876 94.1764 20.8382 94.4572 20.8382H96.7199C97.0947 20.8382 97.4138 20.5654 97.4723 20.1954L99.6906 6.13947C99.7341 5.86207 99.5199 5.61126 99.239 5.61126H96.7068C96.4821 5.61126 96.2906 5.77508 96.2556 5.99732Z" fill="#2790C3"/>
<path fill-rule="evenodd" clip-rule="evenodd" d="M10.3813 23.3937L11.1182 18.7211L11.1657 18.4622C11.2012 18.237 11.3165 18.031 11.4902 17.8827C11.6638 17.7344 11.8854 17.6526 12.1137 17.6526H12.6988C13.6742 17.6526 14.5702 17.5484 15.3623 17.3429C16.2073 17.1239 16.959 16.7827 17.5961 16.3296C18.2716 15.8492 18.839 15.2281 19.2827 14.4841C19.7508 13.6991 20.0945 12.7541 20.3044 11.6755C20.4899 10.723 20.5247 9.87041 20.4081 9.14089C20.2847 8.37028 19.9878 7.71272 19.5259 7.18598C19.2458 6.86695 18.8873 6.59053 18.4606 6.36435L18.4505 6.35894L18.4503 6.34663C18.5993 5.39589 18.5936 4.60285 18.4333 3.92016C18.2721 3.236 17.946 2.62033 17.4352 2.03841C16.3771 0.832695 14.4525 0.221215 11.7151 0.221215H4.19722C3.94594 0.221215 3.70204 0.311139 3.51086 0.47448C3.31968 0.637821 3.19305 0.864724 3.15363 1.11306L0.0233044 20.9635C-0.0052741 21.1446 0.0467092 21.3286 0.16595 21.4676C0.285192 21.6073 0.458635 21.6874 0.641928 21.6874H5.30588L5.30169 21.7095L4.98141 23.7406C4.95677 23.8985 5.0021 24.0586 5.10584 24.1798C5.20954 24.3013 5.36059 24.3713 5.52023 24.3713H9.43202C9.65153 24.3713 9.86417 24.2926 10.031 24.15C10.1977 24.0074 10.3086 23.8096 10.3428 23.593L10.3813 23.3937Z" fill="#27346A"/>
<path fill-rule="evenodd" clip-rule="evenodd" d="M7.70476 6.37248C7.75427 6.05789 7.95606 5.80045 8.22781 5.67012C8.35146 5.61098 8.48943 5.57797 8.63406 5.57797H14.5269C15.2251 5.57797 15.876 5.62378 16.4712 5.71963C16.6412 5.74699 16.8065 5.7785 16.9674 5.81423C17.1283 5.84996 17.2842 5.88963 17.4352 5.93398C17.5109 5.95589 17.585 5.97907 17.6582 6.00346C17.9504 6.10053 18.2224 6.21484 18.4727 6.34736C18.7678 4.46585 18.4707 3.18551 17.453 2.02586C16.3325 0.749191 14.3084 0.20226 11.7186 0.20226H4.20069C3.6715 0.20226 3.2209 0.58733 3.13837 1.11012L0.00803911 20.9606C-0.0537988 21.3523 0.248985 21.7063 0.64539 21.7063H5.28642L7.70476 6.37248Z" fill="#27346A"/>
<path fill-rule="evenodd" clip-rule="evenodd" d="M18.4745 6.34736C18.452 6.49098 18.4272 6.63707 18.3976 6.7876C17.4065 11.8778 14.0145 13.6376 9.68241 13.6376H7.47643C6.94724 13.6376 6.50033 14.0229 6.41781 14.5457L4.96793 23.7378C4.91399 24.0803 5.17883 24.3902 5.52545 24.3902H9.43753C9.90045 24.3902 10.2946 24.0535 10.3668 23.5959L10.4053 23.3971L11.1421 18.7241L11.1897 18.4659C11.2619 18.0084 11.6561 17.6716 12.119 17.6716H12.7041C16.494 17.6716 19.4614 16.1318 20.3286 11.679C20.6908 9.81842 20.5035 8.26533 19.5454 7.17342C19.2557 6.84329 18.895 6.57008 18.4745 6.34736Z" fill="#2790C3"/>
<path fill-rule="evenodd" clip-rule="evenodd" d="M17.4333 5.9339C17.2823 5.88955 17.1263 5.84992 16.9654 5.81419C16.8046 5.77846 16.6392 5.74691 16.4693 5.71959C15.874 5.62374 15.2231 5.57793 14.5249 5.57793H8.63211C8.48748 5.57793 8.34951 5.61094 8.22585 5.67004C7.9541 5.80041 7.75231 6.05785 7.7028 6.37244L6.45028 14.3138L6.41406 14.5457C6.49658 14.0228 6.94349 13.6375 7.47268 13.6375H9.67866C14.0108 13.6375 17.4027 11.8778 18.3939 6.78756C18.4234 6.63703 18.4483 6.49093 18.4707 6.34732C18.2204 6.21476 17.9484 6.10045 17.6563 6.00337C17.5831 5.97898 17.5089 5.95585 17.4333 5.9339Z" fill="#1F264F"/>
</g>
</g>
<defs>
<clipPath id="clip0_1_1721">
<rect width="100" height="24.3902" fill="white"/>
</clipPath>
</defs>
</svg>

<svg xmlns="http://www.w3.org/2000/svg" width="256" height="64" fill="none" viewBox="0 0 100 25"><g clip-path="url(#a)"><path fill="#2790C3" fill-rule="evenodd" d="M77.409 10.745c-.3 1.968-1.803 1.968-3.256 1.968h-.827l.58-3.674a.457.457 0 0 1 .452-.386h.379c.989 0 1.924 0 2.406.564.288.337.375.837.266 1.528Zm-.633-5.134h-5.481a.762.762 0 0 0-.753.643L68.326 20.31a.457.457 0 0 0 .451.528h2.813a.533.533 0 0 0 .526-.45l.629-3.985a.762.762 0 0 1 .752-.643h1.735c3.61 0 5.694-1.747 6.24-5.21.244-1.515.009-2.705-.7-3.538-.78-.916-2.161-1.4-3.996-1.4Z" clip-rule="evenodd"/><path fill="#27346A" fill-rule="evenodd" d="M38.308 10.745c-.3 1.968-1.803 1.968-3.256 1.968h-.827l.58-3.674a.457.457 0 0 1 .451-.386h.38c.989 0 1.923 0 2.405.564.289.337.376.837.267 1.528Zm-.633-5.134h-5.482a.761.761 0 0 0-.752.643L29.224 20.31a.457.457 0 0 0 .452.528h2.617a.762.762 0 0 0 .752-.643l.599-3.792a.762.762 0 0 1 .752-.643h1.734c3.611 0 5.695-1.747 6.24-5.21.245-1.515.01-2.705-.7-3.538-.78-.916-2.161-1.4-3.995-1.4ZM50.404 15.79c-.254 1.5-1.445 2.508-2.963 2.508-.761 0-1.37-.245-1.762-.709-.389-.46-.535-1.114-.412-1.844.236-1.486 1.446-2.525 2.942-2.525.745 0 1.35.247 1.75.715.402.471.56 1.13.445 1.856Zm3.658-5.108h-2.625a.457.457 0 0 0-.451.386l-.116.734-.183-.266c-.569-.825-1.836-1.101-3.1-1.101-2.9 0-5.378 2.197-5.86 5.28-.25 1.537.105 3.007.977 4.032.801.943 1.944 1.335 3.306 1.335 2.338 0 3.634-1.502 3.634-1.502l-.117.73a.457.457 0 0 0 .451.528h2.364a.761.761 0 0 0 .752-.643l1.42-8.985a.456.456 0 0 0-.452-.528Z" clip-rule="evenodd"/><path fill="#2790C3" fill-rule="evenodd" d="M89.505 15.79c-.253 1.5-1.444 2.508-2.963 2.508-.761 0-1.37-.245-1.762-.709-.388-.46-.534-1.114-.411-1.844.236-1.486 1.446-2.525 2.941-2.525.745 0 1.35.247 1.75.715.402.471.56 1.13.445 1.856Zm3.658-5.108h-2.625a.457.457 0 0 0-.45.386l-.116.734-.184-.266c-.568-.825-1.835-1.101-3.1-1.101-2.9 0-5.377 2.197-5.86 5.28-.25 1.537.106 3.007.977 4.032.802.943 1.945 1.335 3.306 1.335 2.338 0 3.634-1.502 3.634-1.502l-.117.73a.457.457 0 0 0 .452.528h2.363a.762.762 0 0 0 .753-.643l1.418-8.985a.456.456 0 0 0-.45-.528Z" clip-rule="evenodd"/><mask id="b" width="100" height="25" x="0" y="0" maskUnits="userSpaceOnUse" style="mask-type:alpha"><path fill="#fff" d="M.016 24.39h99.678V.202H.016V24.39Z"/></mask><g fill-rule="evenodd" clip-rule="evenodd" mask="url(#b)"><path fill="#27346A" d="M68.043 10.682h-2.638a.763.763 0 0 0-.63.334l-3.64 5.36-1.542-5.15a.761.761 0 0 0-.73-.544H56.27a.457.457 0 0 0-.433.604l2.905 8.528-2.732 3.855a.457.457 0 0 0 .373.721h2.636c.25 0 .483-.122.626-.328L68.418 11.4a.457.457 0 0 0-.376-.717Z"/><path fill="#2790C3" d="m96.256 5.997-2.25 14.313a.457.457 0 0 0 .451.528h2.263a.762.762 0 0 0 .752-.643L99.691 6.14a.457.457 0 0 0-.452-.528h-2.532a.457.457 0 0 0-.451.386Z"/><path fill="#27346A" d="m10.381 23.394.737-4.673.048-.259a.96.96 0 0 1 .948-.81h.585c.975 0 1.871-.104 2.663-.31a6.757 6.757 0 0 0 2.234-1.012 6.036 6.036 0 0 0 1.687-1.846c.468-.785.811-1.73 1.021-2.809.186-.952.22-1.805.104-2.534-.123-.77-.42-1.428-.882-1.955a3.727 3.727 0 0 0-1.065-.822l-.01-.005v-.012c.148-.951.143-1.744-.018-2.427-.16-.684-.487-1.3-.998-1.882C16.377.833 14.453.221 11.715.221H4.197a1.058 1.058 0 0 0-1.043.892l-3.13 19.85a.624.624 0 0 0 .618.724h4.664l-.004.022-.32 2.032a.545.545 0 0 0 .538.63h3.912a.923.923 0 0 0 .91-.778l.04-.2Z"/><path fill="#27346A" d="M7.705 6.372a.94.94 0 0 1 .93-.794h5.892c.698 0 1.349.046 1.944.142a8.57 8.57 0 0 1 .964.214 5.845 5.845 0 0 1 1.038.413c.295-1.881-.002-3.161-1.02-4.321C16.333.749 14.308.202 11.719.202H4.2c-.53 0-.98.385-1.063.908L.008 20.96a.645.645 0 0 0 .637.746h4.641L7.705 6.372Z"/><path fill="#2790C3" d="M18.474 6.347c-.022.144-.047.29-.076.44-.991 5.09-4.383 6.85-8.716 6.85H7.476c-.529 0-.976.386-1.058.909l-1.45 9.192a.565.565 0 0 0 .557.652h3.913a.94.94 0 0 0 .929-.794l.038-.199.737-4.673.048-.258a.94.94 0 0 1 .929-.794h.585c3.79 0 6.757-1.54 7.625-5.993.362-1.86.174-3.414-.784-4.506-.29-.33-.65-.603-1.07-.826Z"/><path fill="#1F264F" d="M17.433 5.934a8.532 8.532 0 0 0-.964-.214 12.294 12.294 0 0 0-1.944-.142H8.632a.94.94 0 0 0-.93.794L6.45 14.314l-.036.232c.083-.523.53-.909 1.059-.909h2.206c4.332 0 7.724-1.76 8.715-6.85.03-.15.054-.296.077-.44a5.33 5.33 0 0 0-1.038-.413Z"/></g></g><defs><clipPath id="a"><path fill="#fff" d="M0 0h100v24.39H0z"/></clipPath></defs></svg>
